icons/todofile.svg

<svg xmlns="http://www.w3.org/2000/svg" viewBox="0 0 16 16"><path fill="#6aab20" d="m16 7.766-6 6.207-3-3.1 1.5-1.555L10 10.87l4.5-4.655ZM5.7 11.594l.8.828H2a1.02 1.02 0 0 1-1-1.034V2.077a1.02 1.02 0 0 1 1-1.035h7a1.02 1.02 0 0 1 1 1.034V8.8l-.8-.827a.984.984 0 0 0-1.42 0L5.7 10.146a1.056 1.056 0 0 0 0 1.457zM4 3.111h5V2.077H4zM4 5.18h5V4.146H4zm0 2.069h3V6.215H4zM3 8.284H2v1.034h1zm0-2.069H2v1.034h1zm0-2.069H2V5.18h1zm0-2.069H2v1.034h1z" data-iconColor="Todofile"/></svg>

<!--
  - The MIT License (MIT)
  -
  - Copyright (c) 2015-2024 Elior "Mallowigi" Boukhobza
  -
  - Permission is hereby granted, free of charge, to any person obtaining a copy
  - of this software and associated documentation files (the "Software"), to deal
  - in the Software without restriction, including without limitation the rights
  - to use, copy, modify, merge, publish, distribute, sublicense, and/or sell
  - copies of the Software, and to permit persons to whom the Software is
  - furnished to do so, subject to the following conditions:
  -
  - The above copyright notice and this permission notice shall be included in all
  - copies or substantial portions of the Software.
  -
  - THE SOFTWARE IS PROVIDED "AS IS", WITHOUT WARRANTY OF ANY KIND, EXPRESS OR
  - IMPLIED, INCLUDING BUT NOT LIMITED TO THE WARRANTIES OF MERCHANTABILITY,
  - FITNESS FOR A PARTICULAR PURPOSE AND NONINFRINGEMENT. IN NO EVENT SHALL THE
  - AUTHORS OR COPYRIGHT HOLDERS BE LIABLE FOR ANY CLAIM, DAMAGES OR OTHER
  - LIABILITY, WHETHER IN AN ACTION OF CONTRACT, TORT OR OTHERWISE, ARISING FROM,
  - OUT OF OR IN CONNECTION WITH THE SOFTWARE OR THE USE OR OTHER DEALINGS IN THE
  - SOFTWARE.
  -
  -->

<svg xmlns="http://www.w3.org/2000/svg" width="16px" height="16px" viewBox="0 0 16 16">
  <path fill="#6AAB20" data-iconColor="Todofile"
        d="M16,7.766l-6,6.207-3-3.1L8.5,9.318,10,10.87l4.5-4.655ZM5.7,11.594l0.8,0.828H2a1.021,1.021,0,0,1-1-1.034V2.077A1.021,1.021,0,0,1,2,1.042H9a1.021,1.021,0,0,1,1,1.034V8.8L9.2,7.973a0.984,0.984,0,0,0-1.42,0L5.7,10.146a1.056,1.056,0,0,0,0,1.457V11.594ZM4,3.111H9V2.077H4V3.111ZM4,5.18H9V4.146H4V5.18ZM4,7.249H7V6.215H4V7.249ZM3,8.284H2V9.318H3V8.284ZM3,6.215H2V7.249H3V6.215ZM3,4.146H2V5.18H3V4.146ZM3,2.077H2V3.111H3V2.077Z"
  />
</svg>
